!!!COM: Corelli, Arcangelo
!!!OTL: Sonate a tre [in d]
!!!XEN: Trio Sonata Opus 1, No. 11
!!!OPS: Opus 1
!!!ONM: No. 11
!!!OMV: Movement 1.
!!!YEC: Copyright 1994, Center for Computer Assisted Research in the Humanities
!!!YEM: Rights to all derivative electronic formats reserved.
!!!YEM: Refer to licensing agreement for further details.
!! For the following instrumentation: Violino I & II, Violone/Archlute,
!!    and Organo.
!! Grave.
**kern	**kern	**kern	**kern
*ICklav	*ICstr	*ICstr	*ICstr
*Iorgan	*Icello	*Ivioln	*Ivioln
*	*Iarchl	*	*
!Organo	!Violone	!Violin 2	!Violin 1
!	! or	!	!
!	!Archlute	!	!
*clefF4	*clefF4	*clefG2	*clefG2
*k[b-]	*k[b-]	*k[b-]	*k[b-]
*d:	*d:	*d:	*d:
*M4/4	*M4/4	*M4/4	*M4/4
*MM54	*MM54	*MM54	*MM54
=1-	=1-	=1-	=1-
2D\	2r	4dd\	4ff\
.	.	4ee\	4gg\
4D\	4D\	4ff\	4aa\
4E\	4E\	4ee\	4gg\
=2	=2	=2	=2
4F\	4F\	2dd\	2ff\
4G\	4G\	.	.
2A\	2A\	4cc#\	4ee\
.	.	4cc#\	[4aa\
=3	=3	=3	=3
2B-\	2B-\	2dd\	4aa\]
.	.	.	4gg\
2A\	2A\	2cc#\	2aa\
=4	=4	=4	=4
2AA/	2r	4a/	4cc\
.	.	4b\	4dd\
4AA/	4AA/	4cc\	4ee\
4BB/	4BB/	4b\	4dd\
=5	=5	=5	=5
4C/	4C/	2a/	2cc\
4D\	4D\	.	.
2E\	2E\	4g#/	4b\
.	.	4g#/	[4ee\
=6	=6	=6	=6
2F\	2F\	2a/	4ee\]
.	.	.	4dd\
4E\	4E\	4g#/	4ee\
4E\	4E\	[4ee\	4g#/
=7	=7	=7	=7
4F#\	4F#\	4ee\]	4a/
4G#\	4G#\	2dd\	4b\
4A\	4A\	.	4e/
4AA/	4AA/	[4cc\	4ee\
=8	=8	=8	=8
2D\	2D\	4cc\]	2.ff\
.	.	(8b-/L	.
.	.	8a/J)	.
2E\	2E\	2g#/	.
.	.	.	(8ee\L
.	.	.	8dd\J)
=9	=9	=9	=9
2AA/	2AA/	4.a/	(8cc\L
.	.	.	8dd\J)
.	.	.	2ee\
.	.	8g/	.
2D\	2D\	(8f#/L	.
.	.	8g#/)	.
.	.	(8a/	[4dd\
.	.	8b/J)	.
=10	=10	=10	=10
2E\	2E\	(8g#/L	4dd\]
.	.	8e/J)	.
.	.	2a/	4cc\
2EE/	2EE/	.	2b\
.	.	4g#/	.
=11	=11	=11	=11
2AA/	2AA/	4a/	4a/
.	.	4cc#\	2aa\
4BB/	4BB/	4dd\	.
4C#/	4C#/	4ee\	[4gg\
=12	=12	=12	=12
2D\	2D\	4a/	4gg\]
.	.	4aa\	2ff\
2GG/	2GG/	[2bb-\	.
.	.	.	(8ee-\L
.	.	.	8dd\J)
=13	=13	=13	=13
2AA/	2AA/	4bb-\]	2cc#\
.	.	(8aa\L	.
.	.	8gg\J)	.
2D\	2D\	(8ff\L	4.dd\
.	.	8gg\J)	.
.	.	[4aa\	.
.	.	.	8ccn\
=14	=14	=14	=14
2G\	2G\	4aa\]	(8b\L
.	.	.	8cc#\)
.	.	2gg\	(8dd\
.	.	.	8ee\J)
2A\	2A\	.	8cc#\L
.	.	.	8a\J
.	.	4ff\	[4dd\
=15	=15	=15	=15
2AA/	2AA/	2ee\	4dd\]
.	.	.	4cc#\
2D\	2D\	4dd\	4.dd\
.	.	[4b-\	.
.	.	.	8ff\
=16	=16	=16	=16
2C/	2C/	8b-\L]	4.ee\
.	.	(16cc\L	.
.	.	16b-\JJ)	.
.	.	[4a/	.
.	.	.	(16ff\LL
.	.	.	16ee\JJ)
2BB-/	2BB-/	8a/L]	4.dd\
.	.	(16b-/L	.
.	.	16a/JJ)	.
.	.	[4g/	.
.	.	.	(16ee\LL
.	.	.	16dd\JJ)
=17	=17	=17	=17
1AA/	1AA/	4g/]	8cc#\L
.	.	.	8a\J
.	.	4f/	2dd\
.	.	2e/	.
.	.	.	4cc#\
=18	=18	=18	=18
1D;\	1D;\	1d;/	1dd;\
==	==	==	==
*-	*-	*-	*-
!!!CDT: 1653/2/17/-1713/1/8
!!!OCY: Italia
!!!ODE: Queen Christina Alexandra of Sweden
!!!ODT: 1681//
!!!OPC: Roma; Rome
!!!AGN: trio sonata
!!!AST: baroque, chamber
!!!AMT: simple quadruple
!!!YOR1: J. Joachim & F. Chrysander (eds.) Les Oeuvre de Arcangelo Corelli
!!!YOR2: London: Augener & Co. 1871
!!!YOY: 1871
!!!AIN: archl cello organ violn
!!!EEV: 1.1
!!!RDT: 1993 September 16
!!!YER: 1994 December 14
!!!EMD: 1996 July 9
!!!YEN: United States of America
!!!EFL: 1/4
!!!ENC: Frances Bennion & Steven Rasmussen
!!!EED: W.B. Hewlett
!!!VTS: 203892752
